dist/svgs/devui-icons/op/mobile.svg

<?xml version="1.0" encoding="UTF-8"?>
<svg width="16px" height="16px" viewBox="0 0 16 16" version="1.1" xmlns="http://www.w3.org/2000/svg" xmlns:xlink="http://www.w3.org/1999/xlink">
    <title>操作/手机端</title>
    <desc>Created with Sketch.</desc>
    <g id="操作/手机端" stroke="none" stroke-width="1" fill="none" fill-rule="evenodd">
        <path d="M12,8 L12,2 L4,2 L4,8 L12,8 Z M12,10 L4,10 L4,14 L12,14 L12,10 Z M3,0 L13,0 C13.5522847,0 14,0.44771525 14,1 L14,15 C14,15.5522847 13.5522847,16 13,16 L3,16 C2.44771525,16 2,15.5522847 2,15 L2,1 C2,0.44771525 2.44771525,0 3,0 Z M7,11 L9,11 L9,13 L7,13 L7,11 Z" id="Combined-Shape" fill="#293040" fill-rule="nonzero"></path>
    </g>
</svg>

<svg xmlns="http://www.w3.org/2000/svg" viewBox="0 0 16 16"><path d="M12 8V2H4v6h8zm0 2H4v4h8v-4zM3 0h10a1 1 0 011 1v14a1 1 0 01-1 1H3a1 1 0 01-1-1V1a1 1 0 011-1zm4 11h2v2H7v-2z"/></svg>
